X:1
T:Title
%%score 1 { 2 | 3 }
L:1/8
Q:1/4=84
M:4/8
K:F
V:1 treble nm="Grand Piano, Soprano"
V:2 bass nm="Choir Pad, Foggia, T. E. Perkins, 1893"
V:3 bass 
V:1
 [FA][Fc][Fc][Fc] | [Fd][Fc] [Fc]2 | [CF]>[CF][CF][FA] | [FA]2 [EG]2 | [FA][Fc][Fc][Fc] | %5
w: By~Theodore~Edson~Perkins,~1893 * * *|||||
 [Fd][Fc] [Fc]2 | [CF]>[CF][FA]F | [EG]2 F2 | [EG][GB][GB][EG] | [FA][Fd] [Fc]2 | %10
w: |||||
 [EG][Ec][Ge][Ec] | [Fd][F=B] [Ec]2 | [FA][Fc][Fc][Fc] | [Fd][Fc] [FA]2 | [CF]>[CF][FA]F | %15
w: |||||
 [EG]2 F2- | F4- | F z z2 |] %18
w: |||
V:2
 CA,A,A, | B,A, A,2 | A,>A,A,=B, | C2 C2 | CA,A,[K:bass]A, | B,A, A,2 | A,>A,[K:treble]CC | %7
 B,2 A,2 | CCCC | CB, A,2 | CCCG, | =B,D C2 | C[K:bass]A,A,A, | B,A, C2 | A,>A,CC | B,2 A,2- | %16
 A,4- | A, z z2 |] %18
V:3
 F,F,F,F, | B,,F, F,2 | F,>F,F,D, | C,2 C,2 | F,F,F,F, | B,,F, F,2 | F,>F,F,A,, | C,2 F,2 | %8
 C,C,C,C, | F,F, F,2 | G,G,C,C, | G,G, C,2 | F,F,F,F, | B,,F, F,2 | F,>F,F,A,, | C,2 F,2- | F,4- | %17
 F, z z2 |] %18

